styles/1/Numix/22/places/grey-folder-publicshare.svg

<?xml version="1.0" encoding="UTF-8" standalone="no"?>
<!-- Created with Inkscape (http://www.inkscape.org/) -->

<svg
   xmlns:dc="http://purl.org/dc/elements/1.1/"
   xmlns:cc="http://creativecommons.org/ns#"
   xmlns:rdf="http://www.w3.org/1999/02/22-rdf-syntax-ns#"
   xmlns:svg="http://www.w3.org/2000/svg"
   xmlns="http://www.w3.org/2000/svg"
   xmlns:sodipodi="http://sodipodi.sourceforge.net/DTD/sodipodi-0.dtd"
   xmlns:inkscape="http://www.inkscape.org/namespaces/inkscape"
   width="22"
   height="22"
   id="svg2"
   version="1.1"
   inkscape:version="0.91 r"
   sodipodi:docname="grey-folder-publicshare.svg"
   inkscape:export-filename="/media/Data/Main/Visuals/Icons/Numix/Desktop/repos/numix-wiki/Gjorgi/Numix-folders/48/New/folder-144.png"
   inkscape:export-xdpi="270"
   inkscape:export-ydpi="270">
  <defs
     id="defs4" />
  <sodipodi:namedview
     id="base"
     pagecolor="#ffffff"
     bordercolor="#666666"
     borderopacity="1.0"
     inkscape:pageopacity="0.0"
     inkscape:pageshadow="2"
     inkscape:zoom="19.7"
     inkscape:cx="11.449134"
     inkscape:cy="9.9173008"
     inkscape:document-units="px"
     inkscape:current-layer="layer1"
     showgrid="true"
     inkscape:window-width="1280"
     inkscape:window-height="998"
     inkscape:window-x="0"
     inkscape:window-y="0"
     inkscape:window-maximized="1"
     showguides="true"
     inkscape:guide-bbox="true">
    <inkscape:grid
       type="xygrid"
       id="grid2985"
       empspacing="5"
       visible="true"
       enabled="true"
       snapvisiblegridlinesonly="true" />
  </sodipodi:namedview>
  <metadata
     id="metadata7">
    <rdf:RDF>
      <cc:Work
         rdf:about="">
        <dc:format>image/svg+xml</dc:format>
        <dc:type
           rdf:resource="http://purl.org/dc/dcmitype/StillImage" />
        <dc:title />
      </cc:Work>
    </rdf:RDF>
  </metadata>
  <g
     inkscape:label="Layer 1"
     inkscape:groupmode="layer"
     id="layer1"
     transform="translate(0,-1030.3622)">
    <path
       style="font-size:medium;font-style:normal;font-variant:normal;font-weight:normal;font-stretch:normal;text-indent:0;text-align:start;text-decoration:none;line-height:normal;letter-spacing:normal;word-spacing:normal;text-transform:none;direction:ltr;block-progression:tb;writing-mode:lr-tb;text-anchor:start;baseline-shift:baseline;color:#000000;fill:#bdbdbd;fill-opacity:1;fill-rule:nonzero;stroke:none;stroke-width:1.52408636;marker:none;visibility:visible;display:inline;overflow:visible;enable-background:accumulate;font-family:Sans;-inkscape-font-specification:Sans"
       d="M 1.625 3 C 1.2775698 3.063 0.99985296 3.3968 1 3.75 L 1 18.25 C 1.00617 18.641 1.3590206 18.9938 1.75 19 L 20.25 19 C 20.640979 18.99 20.99383 18.641 21 18.25 L 21 5.8125 C 20.9938 5.4215 20.640979 5.0062 20.25 5 L 13 5 L 13 3.75 C 12.9938 3.359 12.640979 3.0062 12.25 3 L 1.625 3 z M 12.65625 7 C 13.859984 7 14.84375 7.85285 14.84375 8.90625 C 14.830151 9.27475 14.820896 9.6805 14.5625 10.6875 C 14.514858 10.8192 14.433281 10.94575 14.3125 11.09375 C 14.204033 11.22655 14.064329 11.3617 13.9375 11.5 C 13.90988 11.7526 13.91115 12.02845 13.9375 12.28125 C 14.288831 12.54585 14.91204 12.7765 15.5 13 C 15.802728 13.1149 16.092579 13.2482 16.3125 13.375 C 16.422462 13.4382 16.51894 13.4815 16.59375 13.5625 C 16.66381 13.638 16.71175 13.73895 16.71875 13.84375 C 16.719227 13.85075 16.718707 13.865 16.71875 13.875 L 17 15.71875 L 17 15.75 C 17 15.9795 16.829524 16.1622 16.59375 16.3125 C 16.357978 16.4618 16.045342 16.5833 15.65625 16.6875 C 14.878067 16.8958 13.822466 17 12.65625 17 C 11.490035 17 10.434434 16.8958 9.65625 16.6875 C 9.267159 16.5833 8.954523 16.4618 8.71875 16.3125 C 8.4829778 16.1634 8.3125 15.9795 8.3125 15.75 L 8.3125 15.71875 L 8.5625 13.875 C 8.562447 13.864 8.5930395 13.85375 8.59375 13.84375 C 8.6085007 13.62435 8.7581434 13.441 8.96875 13.3125 C 9.189501 13.1779 9.478624 13.07975 9.78125 12.96875 C 10.361945 12.75545 10.986319 12.53145 11.34375 12.28125 C 11.39002 11.98755 11.38382 11.74205 11.34375 11.46875 C 11.213368 11.33905 11.07519 11.1852 10.96875 11.0625 C 10.849826 10.9255 10.79624 10.8154 10.75 10.6875 L 10.71875 10.6875 C 10.489588 9.7206 10.47765 9.26775 10.46875 8.90625 C 10.46875 7.85295 11.452518 7 12.65625 7 z M 8.5625 7.34375 C 9.0105773 7.34375 9.434554 7.5176 9.75 7.75 L 9.84375 7.78125 L 9.78125 7.875 C 9.72416 8.0362 9.6875 8.19685 9.6875 8.34375 C 9.696101 8.69345 9.742316 9.1071 9.96875 10.0625 C 10.00227 10.1554 9.9795 10.23565 10 10.34375 L 10.03125 10.375 L 10 10.40625 C 9.939231 10.53865 9.805124 10.7762 9.625 11 C 9.624175 11.006 9.625825 11.02125 9.625 11.03125 C 9.6007 11.24565 9.6021 11.4725 9.625 11.6875 C 9.742999 11.7729 9.906304 11.8535 10.09375 11.9375 L 10.34375 12.0625 L 10.09375 12.1875 C 9.619398 12.415 8.9991605 12.59425 8.53125 12.78125 C 8.297295 12.87485 8.101199 12.9675 7.96875 13.0625 C 7.8363006 13.1571 7.7808857 13.2365 7.78125 13.3125 L 7.53125 15.15625 C 7.53125 15.16325 7.531591 15.1775 7.53125 15.1875 C 7.528816 15.2359 7.517597 15.29575 7.5 15.34375 C 7.48997 15.37075 7.492039 15.4065 7.46875 15.4375 C 7.457109 15.4525 7.402341 15.45275 7.375 15.46875 C 7.35292 15.48075 7.317533 15.5001 7.28125 15.5 C 6.6137144 15.4365 6.0433167 15.31155 5.65625 15.15625 C 5.4600011 15.07745 5.3031505 14.9816 5.1875 14.875 C 5.0718466 14.7683 5 14.67275 5 14.53125 L 5 14.5 L 5.25 13 C 5.249947 12.989 5.2491675 12.97875 5.25 12.96875 C 5.2644447 12.79135 5.3915218 12.63515 5.5625 12.53125 C 5.7434192 12.42135 5.9708508 12.341 6.21875 12.25 C 6.6969744 12.0758 7.2079809 11.8942 7.5 11.6875 C 7.53583 11.4526 7.531725 11.2191 7.5 11 C 7.395159 10.8956 7.27423 10.7875 7.1875 10.6875 C 7.0884355 10.5737 7.007059 10.481 6.96875 10.375 L 6.96875 10.34375 C 6.7807035 9.55045 6.78851 9.20245 6.78125 8.90625 C 6.78125 8.04195 7.5737968 7.34375 8.5625 7.34375 z "
       transform="translate(0,1030.3622)"
       id="path3912" />
  </g>
</svg>

<!-- Created with Inkscape (http://www.inkscape.org/) -->
<svg xmlns="http://www.w3.org/2000/svg" viewBox="0 0 22 22">
 <g transform="translate(0,-1030.3622)">
  <path d="m 1.625 3 c -0.347 0.063 -0.625 0.397 -0.625 0.75 l 0 14.5 c 0.006 0.391 0.359 0.744 0.75 0.75 l 18.5 0 c 0.391 -0.01 0.744 -0.359 0.75 -0.75 l 0 -12.438 c -0.006 -0.391 -0.359 -0.806 -0.75 -0.813 l -7.25 0 l 0 -1.25 c -0.006 -0.391 -0.359 -0.744 -0.75 -0.75 l -10.625 0 z m 11.03 4 c 1.204 0 2.188 0.853 2.188 1.906 c -0.014 0.368 -0.023 0.774 -0.281 1.781 c -0.048 0.132 -0.129 0.258 -0.25 0.406 c -0.108 0.133 -0.248 0.268 -0.375 0.406 c -0.028 0.253 -0.026 0.528 0 0.781 c 0.351 0.265 0.975 0.495 1.563 0.719 c 0.303 0.115 0.593 0.248 0.813 0.375 c 0.11 0.063 0.206 0.107 0.281 0.188 c 0.07 0.075 0.118 0.176 0.125 0.281 c 0 0.007 0 0.021 0 0.031 l 0.281 1.844 l 0 0.031 c 0 0.229 -0.17 0.412 -0.406 0.563 c -0.236 0.149 -0.548 0.271 -0.938 0.375 c -0.778 0.208 -1.834 0.313 -3 0.313 c -1.166 0 -2.222 -0.104 -3 -0.313 c -0.389 -0.104 -0.702 -0.226 -0.938 -0.375 c -0.236 -0.149 -0.406 -0.333 -0.406 -0.563 l 0 -0.031 l 0.25 -1.844 c 0 -0.011 0.031 -0.021 0.031 -0.031 c 0.015 -0.219 0.164 -0.403 0.375 -0.531 c 0.221 -0.135 0.51 -0.233 0.813 -0.344 c 0.581 -0.213 1.205 -0.437 1.563 -0.688 c 0.046 -0.294 0.04 -0.539 0 -0.813 c -0.13 -0.13 -0.269 -0.284 -0.375 -0.406 c -0.119 -0.137 -0.173 -0.247 -0.219 -0.375 l -0.031 0 c -0.229 -0.967 -0.241 -1.42 -0.25 -1.781 c 0 -1.053 0.984 -1.906 2.188 -1.906 z m -4.094 0.344 c 0.448 0 0.872 0.174 1.188 0.406 l 0.094 0.031 l -0.063 0.094 c -0.057 0.161 -0.094 0.322 -0.094 0.469 c 0.009 0.35 0.055 0.763 0.281 1.719 c 0.034 0.093 0.011 0.173 0.031 0.281 l 0.031 0.031 l -0.031 0.031 c -0.061 0.132 -0.195 0.37 -0.375 0.594 c -0.001 0.006 0.001 0.021 0 0.031 c -0.024 0.214 -0.023 0.441 0 0.656 c 0.118 0.085 0.281 0.166 0.469 0.25 l 0.25 0.125 l -0.25 0.125 c -0.474 0.227 -1.095 0.407 -1.563 0.594 c -0.234 0.094 -0.43 0.186 -0.563 0.281 c -0.132 0.095 -0.188 0.174 -0.188 0.25 l -0.25 1.844 c 0 0.007 0 0.021 0 0.031 c -0.002 0.048 -0.014 0.108 -0.031 0.156 c -0.01 0.027 -0.008 0.063 -0.031 0.094 c -0.012 0.015 -0.066 0.015 -0.094 0.031 c -0.022 0.012 -0.057 0.031 -0.094 0.031 c -0.668 -0.063 -1.238 -0.188 -1.625 -0.344 c -0.196 -0.079 -0.353 -0.175 -0.469 -0.281 c -0.116 -0.107 -0.188 -0.202 -0.188 -0.344 l 0 -0.031 l 0.25 -1.5 c 0 -0.011 -0.001 -0.021 0 -0.031 c 0.014 -0.177 0.142 -0.334 0.313 -0.438 c 0.181 -0.11 0.408 -0.19 0.656 -0.281 c 0.478 -0.174 0.989 -0.356 1.281 -0.563 c 0.036 -0.235 0.032 -0.468 0 -0.688 c -0.105 -0.104 -0.226 -0.213 -0.313 -0.313 c -0.099 -0.114 -0.18 -0.207 -0.219 -0.313 l 0 -0.031 c -0.188 -0.793 -0.18 -1.141 -0.188 -1.438 c 0 -0.864 0.793 -1.563 1.781 -1.563 z" transform="translate(0,1030.3622)" style="visibility:visible;fill:#bdbdbd;fill-opacity:1;stroke:none;display:inline;color:#000;fill-rule:nonzero"/>
 </g>
</svg>
